X:93
T:The flax in bloom
R:Reel
O:Ireland
B:O'Neill's 1389
S:O'Neill's 1389
Z:Transcription:Bob Safranek, Minor arr., chords:Mike Long
M:C|
L:1/8
K:D
"D"D2 (3(FED) FAAf|"G"(3(gfe) fd edBd|\
"D"(3(ABA) FA dfaf|"A"gafd edBd |
"D"D2 (3(FED) FAAf|"G"(3(gfe) fd edBd|\
"D"ABAF ABde|"A"faeg "D"fdd2 :|
|:"D"(3(fgf) df "A"(3(efe) ce|"G"dcdB "D"ADFA|\
"D"DFAd FAdf|"G"(3(gfe) fd edBd|
"D"(3(fgf) df "A"(3(efe) ce|"G"dcdB "D"ADFA|\
"D"DFAc "G"defg|"A"afeg "D"fd d2:|
